X:413
T: "Die Verschmitzte"
N: Z1093
O: Europa, Mitteleuropa, Deutschland, Sachsen
R: Romanze, Ballade
M: 2/4
L: 1/16
K: Bb
F2 | F2B2B2B2 | d4B2
F2 | F3GF2E2 | D4z2
B2 | A2c2f2B2 | A2c2f2
B2 | A4G4 | F4z2
c2 | c2A2A2F2 | F2d2B2
f2 | f2e2e2d2 | d4c2
f2 | f4e2e2 | e4d2
F2 | G2c2B2A2 | B4z2

